dist/img/inst-icon.svg

<svg width="26" height="26" viewBox="0 0 26 26" fill="none" xmlns="http://www.w3.org/2000/svg">
    <path d="M15.4883 13C15.4883 14.3743 14.3743 15.4883 13 15.4883C11.6257 15.4883 10.5117 14.3743 10.5117 13C10.5117 11.6257 11.6257 10.5117 13 10.5117C14.3743 10.5117 15.4883 11.6257 15.4883 13Z"
          />
    <path d="M18.8181 8.59761C18.6984 8.27348 18.5076 7.9801 18.2597 7.73929C18.0188 7.49133 17.7257 7.30051 17.4013 7.18089C17.1383 7.07874 16.7432 6.95714 16.0154 6.92401C15.2281 6.88811 14.992 6.88037 12.9988 6.88037C11.0055 6.88037 10.7694 6.88791 9.98232 6.92381C9.25452 6.95714 8.85918 7.07874 8.59634 7.18089C8.27202 7.30051 7.97864 7.49133 7.73802 7.73929C7.49007 7.9801 7.29924 8.27329 7.17943 8.59761C7.07727 8.86064 6.95567 9.25598 6.92255 9.98378C6.88664 10.7709 6.87891 11.0069 6.87891 13.0003C6.87891 14.9935 6.88664 15.2295 6.92255 16.0168C6.95567 16.7446 7.07727 17.1398 7.17943 17.4028C7.29924 17.7271 7.48987 18.0203 7.73782 18.2611C7.97864 18.5091 8.27182 18.6999 8.59615 18.8195C8.85918 18.9219 9.25452 19.0435 9.98232 19.0766C10.7694 19.1125 11.0053 19.12 12.9986 19.12C14.9922 19.12 15.2283 19.1125 16.0152 19.0766C16.743 19.0435 17.1383 18.9219 17.4013 18.8195C18.0524 18.5684 18.5669 18.0538 18.8181 17.4028C18.9202 17.1398 19.0418 16.7446 19.0751 16.0168C19.111 15.2295 19.1186 14.9935 19.1186 13.0003C19.1186 11.0069 19.111 10.7709 19.0751 9.98378C19.042 9.25598 18.9204 8.86064 18.8181 8.59761ZM12.9988 16.8333C10.8817 16.8333 9.16545 15.1172 9.16545 13.0001C9.16545 10.883 10.8817 9.16692 12.9988 9.16692C15.1158 9.16692 16.832 10.883 16.832 13.0001C16.832 15.1172 15.1158 16.8333 12.9988 16.8333ZM16.9836 9.91118C16.4889 9.91118 16.0878 9.51009 16.0878 9.01537C16.0878 8.52065 16.4889 8.11955 16.9836 8.11955C17.4783 8.11955 17.8794 8.52065 17.8794 9.01537C17.8792 9.51009 17.4783 9.91118 16.9836 9.91118Z"
          />
    <path d="M13 0C5.8214 0 0 5.8214 0 13C0 20.1786 5.8214 26 13 26C20.1786 26 26 20.1786 26 13C26 5.8214 20.1786 0 13 0ZM20.4198 16.0776C20.3837 16.8723 20.2574 17.4148 20.0729 17.8897C19.6851 18.8924 18.8924 19.6851 17.8897 20.0729C17.415 20.2574 16.8723 20.3835 16.0778 20.4198C15.2818 20.4561 15.0275 20.4648 13.0002 20.4648C10.9727 20.4648 10.7186 20.4561 9.92238 20.4198C9.12793 20.3835 8.58521 20.2574 8.11052 20.0729C7.61223 19.8854 7.16115 19.5916 6.78822 19.2118C6.40855 18.8391 6.11478 18.3878 5.92732 17.8897C5.74284 17.415 5.61649 16.8723 5.58038 16.0778C5.54369 15.2816 5.53516 15.0273 5.53516 13C5.53516 10.9727 5.54369 10.7184 5.58018 9.92238C5.61629 9.12773 5.74245 8.58521 5.92693 8.11032C6.11438 7.61223 6.40836 7.16095 6.78822 6.78822C7.16095 6.40836 7.61223 6.11458 8.11032 5.92712C8.58521 5.74265 9.12773 5.61649 9.92238 5.58018C10.7184 5.54388 10.9727 5.53516 13 5.53516C15.0273 5.53516 15.2816 5.54388 16.0776 5.58038C16.8723 5.61649 17.4148 5.74265 17.8897 5.92693C18.3878 6.11438 18.8391 6.40836 19.212 6.78822C19.5916 7.16115 19.8856 7.61223 20.0729 8.11032C20.2576 8.58521 20.3837 9.12773 20.42 9.92238C20.4563 10.7184 20.4648 10.9727 20.4648 13C20.4648 15.0273 20.4563 15.2816 20.4198 16.0776Z"
          />
</svg>

<svg width="26" height="26" fill="none" xmlns="http://www.w3.org/2000/svg"><path d="M15.488 13a2.488 2.488 0 11-4.976 0 2.488 2.488 0 014.976 0z"/><path d="M18.818 8.598a2.315 2.315 0 00-.558-.859 2.312 2.312 0 00-.859-.558c-.263-.102-.658-.224-1.386-.257-.787-.036-1.023-.044-3.016-.044-1.994 0-2.23.008-3.017.044-.727.033-1.123.155-1.386.257a2.31 2.31 0 00-.858.558 2.316 2.316 0 00-.559.859c-.102.263-.223.658-.256 1.386-.036.787-.044 1.023-.044 3.016s.008 2.23.044 3.017c.033.728.154 1.123.256 1.386.12.324.31.617.559.858.24.248.534.439.858.559.263.102.659.224 1.386.257.787.035 1.023.043 3.017.043 1.993 0 2.23-.008 3.016-.043.728-.034 1.123-.155 1.386-.258a2.472 2.472 0 001.417-1.416c.102-.263.224-.658.257-1.386.036-.787.044-1.024.044-3.017 0-1.993-.008-2.23-.044-3.016-.033-.728-.155-1.123-.257-1.386zm-5.82 8.235a3.833 3.833 0 110-7.666 3.833 3.833 0 010 7.666zm3.986-6.922a.896.896 0 110-1.792.896.896 0 010 1.792z"/><path d="M13 0C5.821 0 0 5.821 0 13s5.821 13 13 13 13-5.821 13-13S20.179 0 13 0zm7.42 16.078c-.036.794-.163 1.337-.347 1.812a3.817 3.817 0 01-2.183 2.183c-.475.184-1.018.31-1.812.347-.796.036-1.05.045-3.078.045-2.027 0-2.281-.009-3.078-.045-.794-.037-1.337-.163-1.811-.347a3.659 3.659 0 01-1.323-.861 3.658 3.658 0 01-.86-1.322c-.185-.475-.312-1.018-.348-1.812-.036-.796-.045-1.05-.045-3.078 0-2.027.009-2.282.045-3.078.036-.794.162-1.337.347-1.812.187-.498.481-.949.861-1.322.373-.38.824-.673 1.322-.86.475-.185 1.018-.312 1.812-.348.796-.036 1.05-.045 3.078-.045 2.027 0 2.282.009 3.078.045.794.036 1.337.163 1.812.347.498.187.95.481 1.322.861.38.373.674.824.86 1.322.186.475.312 1.018.348 1.812.036.796.045 1.05.045 3.078 0 2.027-.009 2.282-.045 3.078z"/></svg>
